X:327
T:Return from Camden Town
R:reel
Z:id:hn-reel-327
M:C|
K:Dmix
d2AG FADF|Ec~c2 Ecce|dBcA BGAF|GFEG FDfe|
d2AG FADF|EGAB c2ce|decd BcAF|GFEG FDDe||
fd~d2 fdad|fd~d2 ^cdeg|fddA dAdA|^ceag fdde|
fd~d2 ad~d2|egce gceg|a2ge fded|^ceag fedc||
